X:1
T: I Ha'e Laid a Herring in Salt
C:
R:Jig
Q:180
K:Bb
M:6/8
L:1/16
|:D3EF2 F4B2|G3BF2 G6|F3GB2 B4c2|d4e2 f6|
D3EF2 F4B2|G3BF2 G2B2e2|d2g2f2 d4c2|BG3F2 F6|
d3cd2 e4e2|f3ef2 g6|G3cc2 c3de2|d3cB2 A6|
D3EF2 F4B2|GB3F2 G2B2e2|dg3f2 d4c2|BG3F2 F6:|
